X: 28
T:Billy In The Lowground
% Nottingham Music Database
S:via PR
M:4/4
L:1/4
K:C
"C"G/2A/2C/2D/2 E/2G/2A/2B/2|c/2B/2c/2d/2 c/2A/2G/2c/2|\
"Am"A/2B/2A/2G/2 E/2G/2A/2B/2|"Am"c2/3B2/3A2/3 G/2E/2 D/2C/2C/2A,/2|
"C"G,/2A,/2C/2D/2 E/2G/2A/2B/2|"C"c/2B/2c/2d/2 c/2A/2G/2c/2|\
"Am"A/2B/2A/2G/2 E/2G/2A/2B/2|"Am"c2/3B2/3A2/3 G/2E/2 "G7"D"C"C::
"C"e/2ge/2 gg|"C"g/2a/2g/2e/2 "G"d/2B/2G|"Am"e/2ag/2 aa|\
a/2b/2a/2g/2 e/2d/2c/2d/2|
"C"e/2ge/2 gg|"C"g/2a/2g/2e/2 "G"d/2B/2G|"Am"A/2B/2A/2G/2 E/2G/2A/2B/2|\
"Am"c2/3B2/3A2/3 G/2E/2 "G7" D "C"C:|


